src/images/html-icon.svg

<svg width="28" height="33" viewBox="0 0 28 33" fill="none" xmlns="http://www.w3.org/2000/svg">
<g clip-path="url(#clip0_92_184)">
<g filter="url(#filter0_d_92_184)">
<path d="M27.9434 0.0844269L25.3919 29.612L13.9226 32.8966L2.48493 29.6165L-0.0639648 0.0844269H27.9434Z" fill="#902BA9"/>
</g>
<path d="M13.9399 30.3859L23.2077 27.7317L25.388 2.49905H13.9399V30.3859Z" fill="white" fill-opacity="0.15"/>
<path d="M8.97979 9.74315H13.9399V6.12115H5.14795L5.23183 7.09286L6.09364 17.0741H13.9399V13.4521H9.30026L8.97979 9.74315ZM9.77003 18.8852H6.25031L6.74149 24.5722L13.9238 26.6318L13.9399 26.6272V22.8588L13.9245 22.863L10.0197 21.7738L9.77003 18.8852Z" fill="#EBEBEB"/>
<path d="M13.9278 17.0741H18.2454L17.8383 21.7716L13.9277 22.8619V26.6301L21.1157 24.5722L21.1684 23.9603L21.9925 14.4247L22.078 13.4521H13.9278V17.0741ZM13.9278 9.7343V9.74315H22.397L22.4673 8.92908L22.6271 7.09286L22.7109 6.12115H13.9278V9.7343Z" fill="white"/>
</g>
<defs>
<filter id="filter0_d_92_184" x="-4.06396" y="0.0844269" width="36.0073" height="40.8121" filterUnits="userSpaceOnUse" color-interpolation-filters="sRGB">
<feFlood flood-opacity="0" result="BackgroundImageFix"/>
<feColorMatrix in="SourceAlpha" type="matrix" values="0 0 0 0 0 0 0 0 0 0 0 0 0 0 0 0 0 0 127 0" result="hardAlpha"/>
<feOffset dy="4"/>
<feGaussianBlur stdDeviation="2"/>
<feComposite in2="hardAlpha" operator="out"/>
<feColorMatrix type="matrix" values="0 0 0 0 0 0 0 0 0 0 0 0 0 0 0 0 0 0 0.25 0"/>
<feBlend mode="normal" in2="BackgroundImageFix" result="effect1_dropShadow_92_184"/>
<feBlend mode="normal" in="SourceGraphic" in2="effect1_dropShadow_92_184" result="shape"/>
</filter>
<clipPath id="clip0_92_184">
<rect width="28" height="33" fill="white"/>
</clipPath>
</defs>
</svg>

<svg width="28" height="33" fill="none" xmlns="http://www.w3.org/2000/svg"><g clip-path="url(#a)"><g filter="url(#b)"><path d="m27.943.084-2.551 29.528-11.47 3.285-11.437-3.28L-.064.083h28.007z" fill="#902BA9"/></g><path d="m13.94 30.386 9.268-2.654 2.18-25.233H13.94v27.887z" fill="#fff" fill-opacity=".15"/><path d="M8.98 9.743h4.96V6.121H5.148l.084.972.862 9.981h7.846v-3.622H9.3l-.32-3.709zm.79 9.142H6.25l.491 5.687 7.183 2.06.016-.005V22.86l-.015.004-3.905-1.09-.25-2.888z" fill="#EBEBEB"/><path d="M13.928 17.074h4.317l-.407 4.698-3.91 1.09v3.768l7.188-2.058.052-.612.825-9.535.085-.973h-8.15v3.622zm0-7.34v.01h8.469l.07-.815.16-1.836.084-.972h-8.783v3.613z" fill="#fff"/></g><defs><clipPath id="a"><path fill="#fff" d="M0 0h28v33H0z"/></clipPath><filter id="b" x="-4.064" y=".084" width="36.007" height="40.812" filterUnits="userSpaceOnUse" color-interpolation-filters="sRGB"><feFlood flood-opacity="0" result="BackgroundImageFix"/><feColorMatrix in="SourceAlpha" values="0 0 0 0 0 0 0 0 0 0 0 0 0 0 0 0 0 0 127 0" result="hardAlpha"/><feOffset dy="4"/><feGaussianBlur stdDeviation="2"/><feComposite in2="hardAlpha" operator="out"/><feColorMatrix values="0 0 0 0 0 0 0 0 0 0 0 0 0 0 0 0 0 0 0.25 0"/><feBlend in2="BackgroundImageFix" result="effect1_dropShadow_92_184"/><feBlend in="SourceGraphic" in2="effect1_dropShadow_92_184" result="shape"/></filter></defs></svg>
